X: 305739
M: 2/4
L: 1/16
K: C
c2c2 c2BA | GFED CcBA | Gedc Bgfe | dGAB cege |\
c2c2 c2ce | g2 g4 af | e2fd c2B2 | c6 H|]
e>f |\
g>eg>e c>eg>e | a>fa>f d>fa>f | g>eg>e c>eg>e | B>cA>B G>de>f |\
g>eg>e c>eg>e | a>fa>f d>fa>f | g>ec>e a>fd>f | e>fd>e "^D.C."c2 :|


